icons/board-chart.svg

<svg xmlns="http://www.w3.org/2000/svg" viewBox="0 0 24 24" fill="currentColor">
  <path d="M3.75 7.5c0-1.78579 1.46421-3.25 3.25-3.25h10c1.7858 0 3.25 1.46421 3.25 3.25v6c0 1.7858-1.4642 3.25-3.25 3.25h-1.4871a.607575.607575 0 0 0-.027 0H8.5143c-.00903-.0002-.01805-.0002-.02707 0H7c-1.87354 0-3.25-1.4519-3.25-3.25v-6ZM17 18.25h-.0985l1.2226 1.8339c.2298.3447.1367.8103-.208 1.0401-.3446.2298-.8103.1366-1.0401-.208l-1.7773-2.666H8.90144l-1.77732 2.666c-.22977.3446-.69542.4378-1.04007.208-.34464-.2298-.43777-.6954-.20801-1.0401L7.09866 18.25H7c-2.72646 0-4.75-2.1481-4.75-4.75v-6c0-2.61421 2.13579-4.75 4.75-4.75h10c2.6142 0 4.75 2.13579 4.75 4.75v6c0 2.6142-2.1358 4.75-4.75 4.75Zm-7.25-6.5502c0-.4142-.33579-.75-.75-.75s-.75.3358-.75.75v.8c0 .4142.33579.75.75.75s.75-.3358.75-.75v-.8ZM12 9.6499c.4142 0 .75.33579.75.75v2.1c0 .4142-.3358.75-.75.75s-.75-.3358-.75-.75v-2.1c0-.41421.3358-.75.75-.75Zm3.6499-.55005c0-.41421-.3358-.75-.75-.75s-.75.33579-.75.75v3.40005c0 .4142.3358.75.75.75s.75-.3358.75-.75V9.09985Z"/>
</svg>

<svg width="24" height="24" viewBox="0 0 24 24" fill="none" xmlns="http://www.w3.org/2000/svg">
<path fill-rule="evenodd" clip-rule="evenodd" d="M3.75 7.5C3.75 5.71421 5.21421 4.25 7 4.25H17C18.7858 4.25 20.25 5.71421 20.25 7.5V13.5C20.25 15.2858 18.7858 16.75 17 16.75H15.5129C15.5039 16.7498 15.4949 16.7498 15.4859 16.75H8.5143C8.50527 16.7498 8.49625 16.7498 8.48723 16.75H7C5.12646 16.75 3.75 15.2981 3.75 13.5V7.5ZM17 18.25H16.9015L18.1241 20.0839C18.3539 20.4286 18.2608 20.8942 17.9161 21.124C17.5715 21.3538 17.1058 21.2606 16.876 20.916L15.0987 18.25H8.90144L7.12412 20.916C6.89435 21.2606 6.4287 21.3538 6.08405 21.124C5.73941 20.8942 5.64628 20.4286 5.87604 20.0839L7.09866 18.25H7C4.27354 18.25 2.25 16.1019 2.25 13.5V7.5C2.25 4.88579 4.38579 2.75 7 2.75H17C19.6142 2.75 21.75 4.88579 21.75 7.5V13.5C21.75 16.1142 19.6142 18.25 17 18.25ZM9.75 11.6998C9.75 11.2856 9.41421 10.9498 9 10.9498C8.58579 10.9498 8.25 11.2856 8.25 11.6998V12.4998C8.25 12.914 8.58579 13.2498 9 13.2498C9.41421 13.2498 9.75 12.914 9.75 12.4998V11.6998ZM12 9.6499C12.4142 9.6499 12.75 9.98569 12.75 10.3999V12.4999C12.75 12.9141 12.4142 13.2499 12 13.2499C11.5858 13.2499 11.25 12.9141 11.25 12.4999V10.3999C11.25 9.98569 11.5858 9.6499 12 9.6499ZM15.6499 9.09985C15.6499 8.68564 15.3141 8.34985 14.8999 8.34985C14.4857 8.34985 14.1499 8.68564 14.1499 9.09985V12.4999C14.1499 12.9141 14.4857 13.2499 14.8999 13.2499C15.3141 13.2499 15.6499 12.9141 15.6499 12.4999V9.09985Z" fill="black"/>
</svg>
